!!!COM: Bach, Johann Sebastian
!!!CDT: 1685/02/21/-1750/07/28/
!!!OPR: Partita for solo violin, No. 3 in E Major
!!!OTL: Movement 7: Gigue
!!!ODT: 1720///
!!!SCT: BWV 1006
**kern
*Ivioln
*>[A,A,B,B]
*>norep[A,B]
=1-
*>A
*clefG2
*k[]
*M6/8
*MM108
8bb\
=2
(8gg#\L
8ee\)
8b\J
16e/LL
16f#/
16g#/
16a/
16b/
16cc#/JJ
=3
(16dd#\LL
16ee\J
8ff#\)
8ff#\J
(16a\LL
16g#\J
8a\)
8ff#\J
=4
16B/LL
16c#/
16d#/
16e/
16f#/
16g#/JJ
16a/LL
16g#/
16a/
16cc#/
16b/
16a/JJ
=5
16g#/LL
16f#/
16g#/
16a/
16b/
16g#/JJ
8.e/L
16f#/L
16g#/
16a/JJ
=6
16b\LL
16g#\
16e\
16g#\
16b\
16dd\JJ
16cc#\LL
16ee\
16aa\
16ee\
16cc#\
16a\JJ
=7
16b\LL
16g#\
16e\
16g#\
16b\
16dd\JJ
16cc#\LL
16ee\
16aa\
16ee\
16cc#\
16a\JJ
=8
16dd#\LL
16ff#\
16aa\
16ff#\
16dd#\
16b\JJ
16ee\LL
16aa\
16gg#\
16ff#\
16gg#\
16ee\JJ
=9
(16b\LL
16dd#\J
8ff#\)
8aa\J
16gg#\LL
16ff#\
16ee\
16ff#\
16gg#\
16ee\JJ
=10
(16a#\LL
16cc#\J
8ee\)
8gg#\J
16ff#\LL
16ee\
16dd#\
16cc#\
16b\
16a\JJ
=11
(16g#\LL
16b\J
8dd#\)
8ff#\J
16ee\LL
16dd#\
16cc#\
16dd#\
16ee\
16cc#\JJ
=12
16f#\LL
16cc#\
16b\
16cc#\
16dd#\
16b\JJ
16e\LL
16g#\
16cc#\
16dd#\
16ee\
16ff#\JJ
=13
16gg#\LL
16ff#\
16ee\
16dd#\
16cc#\
16ee\JJ
(16bb\LL
16aa#\
16gg#\
16ff#\
16ee\
16dd#\JJ)
=14
(16ee\LL
16dd#\J
8ee\)
8ee\J
16c#/LL
16e/
16g#/
16e/
16c#/
16e/JJ
=15
(16a#\LL
16cc#\J
8ee\)
8ee\J
16A#/LL
16c#/
16f#/
16c#/
16A#/
16c#/JJ
=16
16f#\LL
(16ee\
16dd#\
16cc#\
16b\
16a#\JJ)
8ff#\L
16ee\L
16dd#\
16cc#\
16dd#\JJ
=17
8b/L
16f#/L
16e/
16d#/
16c#/JJ
4B/
=18:|!|:
*>B
8ff#\
=19
8dd#\L
8b\
16f#\L
16g#\JJ
16a\LL
16b\
16cc#\
16dd#\
16ee\
16ff#\JJ
=20
(16gg#\LL
16aa\J
8bb\)
8bb\J
(16dd\LL
16cc#\J
8dd\)
8bb\J
=21
16e#\LL
16f#\
16g#\
16a\
16b\
16dd\JJ
16cc#\LL
16dd#\
16ee#\
16ff#\
16gg#\
16bb\JJ
=22
(16aa\LL
16gg#\)
(16bb\
16aa\)
(16gg#\
16ff#\JJ)
8gg#\L
8cc#\
8gg#\J
=23
16aa\LL
16ff#\
16cc#\
16ff#\
16aa\
16ff#\JJ
16dd\LL
16b\
16f#\
16b\
16dd\
16b\JJ
=24
16gg#\LL
16ee\
16b\
16ee\
16gg#\
16ee\JJ
16cc#/LL
16a/
16e/
16a/
16cc#/
16a/JJ
=25
16ff#\LL
16ee\
16ff#\
16gg#\
16aa\
16bb\JJ
8cc#\L
16dd\L
16cc#\
16b\
16cc#\JJ
=26
8a/L
16e/L
16d/
16c#/
16B/JJ
4A/
8cc#\
=27
16d#/LL
16f#/
16a/
16cc#/
16b/
16a/JJ
16g#\LL
16b\
16dd#\
16ff#\
16ee\
16dd#\JJ
=28
16c#/LL
16e/
16g#/
16b/
16a/
16g#/JJ
16f#\LL
16a\
16cc#\
16ee\
16dd#\
16cc#\JJ
=29
16b\LL
16dd#\
16ff#\
16aa\
16gg#\
16ff#\JJ
8bb\L
16aa\L
16gg#\
16ff#\
16ee\JJ
=30
16dd#\LL
16cc#\
16dd#\
16ee\
16ff#\
16dd#\JJ
(16b\LL
16cc#\
16dd#\
16ee\
16ff#\
16gg#\JJ)
=31
(16aa\LL
16gg#\J
8aa\)
8aa\J
16f#/LL
16a/
16cc#/
16a/
16f#/
16a/JJ
=32
(16dd#\LL
16ff#\J
8aa\)
8aa\J
16d#/LL
16f#/
16b/
16f#/
16d#/
16f#/JJ
=33
16B\LL
(16aa\
16gg#\
16ff#\
16ee\
16dd#\JJ)
8bb\L
16aa\L
16gg#\
16ff#\
16gg#\JJ
=34
8ee/L
16b/L
16a/
16g#/
16f#/JJ
4e/
==:|!
*-
